X:9
T: Als Gott hat Adam erschaffen, S. 41
N: S0072
O: Luxemburg
S: Die Bauernhochzeit in frheren Zeiten]
R: Hochzeitslied, religises Ehestandslied]
M: 4/4
L: 1/8
K: Bb
F2 | B2F2B2c2 | d2c2B2z2 |
c3Bc2d2 | e2d2c2
B2 | e4ded2 | c2z4
e2 | d2f2f2d2 | c2d2e2
c2 | B2d2f2d2 | ccd2e2
cc | B4c4 | d3ef2
ee | d4c4 | B2z4
e2 | d2f2f2d2 | c2d2e2
c2 | B2d2f2d2 | ccd2e2
cc | B4c4 | d3ef2
ee | d4c4 | B2z4

@@@ Tune index: 8063
